src/assets/images/icons/settings-3-line.svg

<svg width="24" height="24" viewBox="0 0 24 24" fill="none" xmlns="http://www.w3.org/2000/svg">
<g clip-path="url(#clip0_58_16360)">
<path d="M3.34006 17.0001C2.91733 16.2691 2.58873 15.4875 2.36206 14.6741C2.85537 14.4232 3.26965 14.0407 3.55909 13.569C3.84852 13.0972 4.00183 12.5546 4.00203 12.0012C4.00224 11.4477 3.84934 10.905 3.56026 10.4331C3.27118 9.96112 2.85718 9.57834 2.36406 9.32707C2.8161 7.69255 3.67679 6.20002 4.86506 4.99007C5.32915 5.29179 5.86768 5.45923 6.42104 5.47385C6.9744 5.48847 7.52101 5.3497 8.00039 5.0729C8.47977 4.7961 8.87321 4.39207 9.13719 3.90551C9.40116 3.41895 9.52537 2.86884 9.49606 2.31607C11.1382 1.89169 12.8613 1.89238 14.5031 2.31807C14.474 2.87083 14.5985 3.42086 14.8626 3.90728C15.1268 4.39369 15.5204 4.79754 15.9999 5.07413C16.4794 5.35071 17.026 5.48925 17.5793 5.47442C18.1327 5.45958 18.6711 5.29195 19.1351 4.99007C19.7141 5.58007 20.2281 6.25107 20.6601 7.00007C21.0931 7.74907 21.4171 8.53007 21.6381 9.32607C21.1448 9.57697 20.7305 9.95944 20.441 10.4312C20.1516 10.9029 19.9983 11.4455 19.9981 11.999C19.9979 12.5524 20.1508 13.0951 20.4399 13.5671C20.7289 14.039 21.1429 14.4218 21.6361 14.6731C21.184 16.3076 20.3233 17.8001 19.1351 19.0101C18.671 18.7083 18.1324 18.5409 17.5791 18.5263C17.0257 18.5117 16.4791 18.6504 15.9997 18.9272C15.5204 19.204 15.1269 19.6081 14.8629 20.0946C14.599 20.5812 14.4748 21.1313 14.5041 21.6841C12.862 22.1084 11.1388 22.1078 9.49706 21.6821C9.52611 21.1293 9.40166 20.5793 9.13748 20.0929C8.8733 19.6064 8.4797 19.2026 8.00023 18.926C7.52076 18.6494 6.97412 18.5109 6.42079 18.5257C5.86746 18.5406 5.32902 18.7082 4.86506 19.0101C4.27405 18.407 3.76166 17.7317 3.34006 17.0001ZM9.00006 17.1961C10.0657 17.8107 10.8669 18.7971 11.2501 19.9661C11.7491 20.0131 12.2501 20.0141 12.7491 19.9671C13.1325 18.7979 13.9341 17.8115 15.0001 17.1971C16.0653 16.5808 17.3206 16.3795 18.5251 16.6321C18.8151 16.2241 19.0651 15.7891 19.2731 15.3341C18.4525 14.4175 17.9992 13.2303 18.0001 12.0001C18.0001 10.7401 18.4701 9.56307 19.2731 8.66607C19.0636 8.21122 18.8125 7.7767 18.5231 7.36807C17.3193 7.62038 16.0649 7.41954 15.0001 6.80407C13.9344 6.18944 13.1332 5.20305 12.7501 4.03407C12.2511 3.98707 11.7501 3.98607 11.2511 4.03307C10.8677 5.20221 10.0661 6.18863 9.00006 6.80307C7.93484 7.41938 6.67954 7.62059 5.47506 7.36807C5.18563 7.77635 4.93519 8.21093 4.72706 8.66607C5.54763 9.58263 6.00094 10.7699 6.00006 12.0001C6.00006 13.2601 5.53006 14.4371 4.72706 15.3341C4.93653 15.7889 5.1876 16.2234 5.47706 16.6321C6.68078 16.3798 7.93527 16.5806 9.00006 17.1961ZM12.0001 15.0001C11.2044 15.0001 10.4413 14.684 9.87874 14.1214C9.31613 13.5588 9.00006 12.7957 9.00006 12.0001C9.00006 11.2044 9.31613 10.4414 9.87874 9.87875C10.4413 9.31614 11.2044 9.00007 12.0001 9.00007C12.7957 9.00007 13.5588 9.31614 14.1214 9.87875C14.684 10.4414 15.0001 11.2044 15.0001 12.0001C15.0001 12.7957 14.684 13.5588 14.1214 14.1214C13.5588 14.684 12.7957 15.0001 12.0001 15.0001ZM12.0001 13.0001C12.2653 13.0001 12.5196 12.8947 12.7072 12.7072C12.8947 12.5196 13.0001 12.2653 13.0001 12.0001C13.0001 11.7348 12.8947 11.4805 12.7072 11.293C12.5196 11.1054 12.2653 11.0001 12.0001 11.0001C11.7348 11.0001 11.4805 11.1054 11.293 11.293C11.1054 11.4805 11.0001 11.7348 11.0001 12.0001C11.0001 12.2653 11.1054 12.5196 11.293 12.7072C11.4805 12.8947 11.7348 13.0001 12.0001 13.0001Z" fill="#181D27"/>
</g>
<defs>
<clipPath id="clip0_58_16360">
<rect width="24" height="24" fill="white"/>
</clipPath>
</defs>
</svg>

<svg xmlns="http://www.w3.org/2000/svg" width="24" height="24" fill="none" viewBox="0 0 24 24"><g clip-path="url(#a)"><path fill="#181d27" d="M3.34 17a10 10 0 0 1-.978-2.326 3 3 0 0 0 .002-5.347A10 10 0 0 1 4.865 4.99a3 3 0 0 0 4.631-2.674 10 10 0 0 1 5.007.002 3 3 0 0 0 4.632 2.672A10 10 0 0 1 20.66 7c.433.75.757 1.53.978 2.326a3 3 0 0 0-.002 5.347 10 10 0 0 1-2.5 4.337 3 3 0 0 0-4.632 2.674 10 10 0 0 1-5.007-.002 3 3 0 0 0-4.632-2.672A10 10 0 0 1 3.34 17m5.66.196a5 5 0 0 1 2.25 2.77q.75.071 1.5.001a5 5 0 0 1 2.25-2.77 5 5 0 0 1 3.525-.565q.435-.614.748-1.298A5 5 0 0 1 18 12c0-1.26.47-2.437 1.273-3.334q-.315-.684-.75-1.298A5 5 0 0 1 15 6.804a5 5 0 0 1-2.25-2.77q-.75-.071-1.499 0a5 5 0 0 1-2.25 2.77 5 5 0 0 1-3.526.564 8 8 0 0 0-.748 1.298A5 5 0 0 1 6 12a5 5 0 0 1-1.273 3.334q.315.684.75 1.298A5 5 0 0 1 9 17.196M12 15a3 3 0 1 1 0-6 3 3 0 0 1 0 6m0-2a1 1 0 1 0 0-2 1 1 0 0 0 0 2"/></g><defs><clipPath id="a"><path fill="#fff" d="M0 0h24v24H0z"/></clipPath></defs></svg>
